icons/svg/amenity/police2.svg

<?xml version="1.0" encoding="UTF-8" standalone="no"?>
<!-- Created with Inkscape (http://www.inkscape.org/) -->

<svg
   xmlns:dc="http://purl.org/dc/elements/1.1/"
   xmlns:cc="http://creativecommons.org/ns#"
   xmlns:rdf="http://www.w3.org/1999/02/22-rdf-syntax-ns#"
   xmlns:svg="http://www.w3.org/2000/svg"
   xmlns="http://www.w3.org/2000/svg"
   xmlns:xlink="http://www.w3.org/1999/xlink"
   xmlns:sodipodi="http://sodipodi.sourceforge.net/DTD/sodipodi-0.dtd"
   xmlns:inkscape="http://www.inkscape.org/namespaces/inkscape"
   version="1.0"
   width="580"
   height="580"
   id="svg2"
   sodipodi:version="0.32"
   inkscape:version="0.92.3 (2405546, 2018-03-11)"
   sodipodi:docname="police2.svg"
   inkscape:output_extension="org.inkscape.output.svg.inkscape">
  <metadata
     id="metadata1976">
    <rdf:RDF>
      <cc:Work
         rdf:about="">
        <dc:format>image/svg+xml</dc:format>
        <dc:type
           rdf:resource="http://purl.org/dc/dcmitype/StillImage" />
        <cc:license
           rdf:resource="http://web.resource.org/cc/PublicDomain" />
        <dc:language>en</dc:language>
      </cc:Work>
    </rdf:RDF>
  </metadata>
  <sodipodi:namedview
     inkscape:window-height="1006"
     inkscape:window-width="1920"
     inkscape:pageshadow="2"
     inkscape:pageopacity="0.0"
     guidetolerance="10.0"
     gridtolerance="10.0"
     objecttolerance="10.0"
     borderopacity="1.0"
     bordercolor="#666666"
     pagecolor="#ffffff"
     id="base"
     inkscape:zoom="0.79627887"
     inkscape:cx="43.323459"
     inkscape:cy="266.79381"
     inkscape:window-x="1920"
     inkscape:window-y="0"
     inkscape:current-layer="svg2"
     showgrid="false"
     showguides="true"
     inkscape:guide-bbox="true"
     inkscape:window-maximized="1">
    <sodipodi:guide
       position="857.7397,-375.49659"
       orientation="0,1"
       id="guide877"
       inkscape:locked="false" />
  </sodipodi:namedview>
  <defs
     id="defs4">
    <inkscape:perspective
       sodipodi:type="inkscape:persp3d"
       inkscape:vp_x="0 : 290 : 1"
       inkscape:vp_y="0 : 1000 : 0"
       inkscape:vp_z="580 : 290 : 1"
       inkscape:persp3d-origin="290 : 193.33333 : 1"
       id="perspective3653" />
    <marker
       viewBox="0 0 10 10"
       refY="5"
       refX="10"
       orient="auto"
       markerWidth="4"
       markerUnits="strokeWidth"
       markerHeight="3"
       id="ArrowStart">
      <path
         id="path2111"
         d="M 10 0 L 0 5 L 10 10 z" />
    </marker>
    <marker
       viewBox="0 0 10 10"
       refY="5"
       refX="0"
       orient="auto"
       markerWidth="4"
       markerUnits="strokeWidth"
       markerHeight="3"
       id="ArrowEnd">
      <path
         id="path2108"
         d="M 0 0 L 10 5 L 0 10 z" />
    </marker>
    <inkscape:perspective
       id="perspective2512"
       inkscape:persp3d-origin="177.51199 : 145.02 : 1"
       inkscape:vp_z="355.02399 : 217.53 : 1"
       inkscape:vp_y="0 : 1000 : 0"
       inkscape:vp_x="0 : 217.53 : 1"
       sodipodi:type="inkscape:persp3d" />
    <inkscape:perspective
       id="perspective3305"
       inkscape:persp3d-origin="372.04724 : 350.78739 : 1"
       inkscape:vp_z="744.09448 : 526.18109 : 1"
       inkscape:vp_y="0 : 1000 : 0"
       inkscape:vp_x="0 : 526.18109 : 1"
       sodipodi:type="inkscape:persp3d" />
    <inkscape:perspective
       id="perspective3354"
       inkscape:persp3d-origin="372.04724 : 350.78739 : 1"
       inkscape:vp_z="744.09448 : 526.18109 : 1"
       inkscape:vp_y="0 : 1000 : 0"
       inkscape:vp_x="0 : 526.18109 : 1"
       sodipodi:type="inkscape:persp3d" />
  </defs>
  <g
     id="g1327">
    <path
       d="M 66.275,1.768 C 24.94,1.768 1.704,23.139 1.704,66.804 L 1.704,516.927 C 1.704,557.771 22.6,579.156 63.896,579.156 L 515.92,579.156 C 557.227,579.156 578.149,558.842 578.149,516.927 L 578.149,66.804 C 578.149,24.203 557.227,1.768 514.628,1.768 C 514.624,1.768 66.133,1.625 66.275,1.768 z"
       style="fill:#111111;stroke:#eeeeee;stroke-width:3.40799999"
       id="path1329" />
  </g>
  <g
     id="g2117"
     transform="matrix(1.1975036,0,0,1.1975036,80.128205,34.575832)"
     style="fill:#000000">
    <g
       id="g2119"
       style="fill:#000000">
      <g
         id="g2121"
         style="fill:#000000">
        <path
           id="path2125"
           style="fill:#000000;stroke:none"
           d="" />
      </g>
      <g
         id="g2127"
         style="fill:#000000">
        <path
           id="path2131"
           style="fill:#000000;stroke:none"
           d="" />
      </g>
    </g>
  </g>
  <image
     sodipodi:absref="/mnt/data/temp/OsmAnd-resources/icons/svg/amenity/pastedpic_10102008_233747.png"
     xlink:href="pastedpic_10102008_233747.png"
     width="239"
     height="190"
     id="image3356"
     x="-1801.1931"
     y="573.99469" />
  <path
     inkscape:connector-curvature="0"
     style="line-height:normal;font-family:'Bitstream Vera Sans';-inkscape-font-specification:'Bitstream Vera Sans';text-indent:0;text-align:start;text-transform:none;overflow:visible;fill:#ffffff;fill-opacity:1;stroke:none;stroke-width:22.81251907"
     d="m 136.72837,31.220487 -15.6836,17.109386 -37.070341,38.496129 -11.406261,12.119149 7.841799,14.970719 c 0,0 19.960963,38.9339 19.960963,64.16022 0,25.95312 -4.897169,42.57774 -10.693377,64.8731 -5.796196,22.29536 -12.119148,49.80452 -12.119148,89.82429 0,78.17143 48.044755,127.63354 95.527425,156.83607 23.74121,14.60138 47.58486,24.89393 67.01178,32.79299 19.4269,7.89907 35.78325,15.96603 36.35744,16.3965 l 12.83205,9.98047 13.54494,-9.98047 c 1.57862,-1.11553 18.23564,-8.48238 37.78323,-16.3965 19.54759,-7.91388 43.36295,-18.17542 67.01178,-32.79299 47.29765,-29.23493 94.81452,-78.76114 94.81452,-156.83607 0,-40.03049 -6.32954,-67.06766 -12.11915,-89.1114 -5.78957,-22.04351 -10.69335,-38.66654 -10.69335,-65.58599 0,-25.19711 19.96095,-64.16022 19.96095,-64.16022 L 507.43183,98.945151 496.02557,86.826002 458.95523,48.329873 443.27162,31.220487 426.87512,47.616985 c -6.84147,6.846718 -33.22507,16.204646 -59.88288,16.396498 -26.65778,0.182495 -52.7122,-8.512724 -60.59575,-16.396498 l -16.3965,-15.68361 -16.3965,15.68361 c -7.88355,7.883774 -33.93795,16.588574 -60.59575,16.396498 -26.6578,-0.182495 -53.04139,-9.54978 -59.88287,-16.396498 z m 153.27162,58.457078 c 22.359,14.031085 49.29262,20.160585 76.99225,19.960975 25.62759,-0.18251 49.66651,-6.40508 70.57624,-17.822301 l 14.97071,14.970721 c -7.51947,14.82039 -18.53517,39.23754 -18.53517,71.28913 0,32.73528 6.50248,55.60666 12.11915,76.99225 5.61666,21.38582 10.69337,42.27206 10.69337,77.70514 0,60.55675 -32.70905,93.61209 -72.7149,118.33995 -20.00294,12.36416 -41.80988,21.62307 -60.59576,29.22853 -13.50752,5.46862 -23.21927,9.81554 -33.50589,14.97072 -10.09066,-5.16225 -19.55467,-9.58788 -32.793,-14.97072 -18.74208,-7.62052 -40.46575,-16.84818 -60.59575,-29.22853 -40.25999,-24.76049 -73.42779,-57.87948 -73.42779,-118.33995 0,-35.42099 5.08331,-56.83922 10.69336,-78.41804 5.61005,-21.57881 12.11915,-44.33407 12.11915,-76.27935 0,-32.06323 -11.01479,-56.47103 -18.53517,-71.28913 l 14.97072,-14.970721 c 20.90972,11.417221 44.94864,17.637741 70.57623,17.822301 27.69964,0.2053 54.63324,-5.92989 76.99225,-19.960975 z m 0,101.230565 -27.80276,62.73442 -69.15044,6.41603 52.04105,44.91214 -14.25782,67.01178 59.16997,-34.21878 59.16998,35.64456 -14.25783,-68.43756 52.04106,-44.91214 -69.15045,-6.41603 z"
     overflow="visible"
     id="path2" />
</svg>

<svg width="580" height="580" viewBox="0 0 580 580" fill="none" xmlns="http://www.w3.org/2000/svg">
<g clip-path="url(#clip0)">
<path d="M66.275 1.7679C24.94 1.7679 1.70398 23.1389 1.70398 66.8039V516.927C1.70398 557.771 22.6 579.156 63.896 579.156H515.92C557.227 579.156 578.149 558.842 578.149 516.927V66.8039C578.149 24.2029 557.227 1.7679 514.628 1.7679C514.624 1.7679 66.133 1.6249 66.275 1.7679Z" fill="#111111" stroke="#EEEEEE" stroke-width="3.408"/>
<path d="M136.728 31.2205L121.045 48.3298L83.9744 86.826L72.5681 98.9451L80.4099 113.916C80.4099 113.916 100.371 152.85 100.371 178.076C100.371 204.029 95.4737 220.654 89.6775 242.949C83.8813 265.245 77.5583 292.754 77.5583 332.773C77.5583 410.945 125.603 460.407 173.086 489.61C196.827 504.211 220.671 514.503 240.098 522.402C259.524 530.302 275.881 538.369 276.455 538.799L289.287 548.779L302.832 538.799C304.411 537.683 321.068 530.317 340.615 522.402C360.163 514.489 383.978 504.227 407.627 489.61C454.925 460.375 502.441 410.848 502.441 332.773C502.441 292.743 496.112 265.706 490.322 243.662C484.533 221.619 479.629 204.996 479.629 178.076C479.629 152.879 499.59 113.916 499.59 113.916L507.432 98.9451L496.026 86.826L458.955 48.3298L443.272 31.2205L426.875 47.617C420.034 54.4637 393.65 63.8216 366.992 64.0135C340.334 64.1959 314.28 55.5007 306.396 47.617L290 31.9333L273.603 47.617C265.72 55.5007 239.665 64.2055 213.008 64.0135C186.35 63.831 159.966 54.4637 153.125 47.617L136.728 31.2205ZM290 89.6775C312.359 103.709 339.293 109.838 366.992 109.639C392.62 109.456 416.659 103.233 437.568 91.8162L452.539 106.787C445.02 121.607 434.004 146.024 434.004 178.076C434.004 210.811 440.506 233.683 446.123 255.068C451.74 276.454 456.816 297.34 456.816 332.773C456.816 393.33 424.107 426.386 384.102 451.113C364.099 463.478 342.292 472.736 323.506 480.342C309.998 485.811 300.287 490.157 290 495.313C279.909 490.15 270.445 485.725 257.207 480.342C238.465 472.721 216.741 463.494 196.611 451.113C156.351 426.353 123.183 393.234 123.183 332.773C123.183 297.352 128.267 275.934 133.877 254.355C139.487 232.777 145.996 210.021 145.996 178.076C145.996 146.013 134.981 121.605 127.461 106.787L142.431 91.8162C163.341 103.233 187.38 109.454 213.008 109.639C240.707 109.844 267.641 103.709 290 89.6775V89.6775ZM290 190.908L262.197 253.643L193.047 260.059L245.088 304.971L230.83 371.982L290 337.764L349.17 373.408L334.912 304.971L386.953 260.059L317.803 253.643L290 190.908Z" fill="white"/>
</g>
<defs>
<clipPath id="clip0">
<path d="M0 0H580V580H0V0Z" fill="white"/>
</clipPath>
</defs>
</svg>
